packages/gamut-icons/src/linkedin.svg

<?xml version="1.0" encoding="utf-8"?>
<!-- Generated by IcoMoon.io -->
<!DOCTYPE svg PUBLIC "-//W3C//DTD SVG 1.1//EN" "http://www.w3.org/Graphics/SVG/1.1/DTD/svg11.dtd">
<svg version="1.1" xmlns="http://www.w3.org/2000/svg" xmlns:xlink="http://www.w3.org/1999/xlink" width="16" height="16" viewBox="0 0 16 16">
<path fill="#444" d="M5.6 8.2c0-1.4 0-2.5-0.1-3.5h2.9l0.2 1.5h0.1c0.4-0.7 1.5-1.8 3.4-1.8 2.2 0 3.9 1.5 3.9 4.7v6.4h-3.4v-6c0-1.4-0.5-2.4-1.7-2.4-0.9 0-1.5 0.6-1.7 1.3-0.2 0.3-0.2 0.6-0.2 0.9v6.3h-3.4v-7.4zM0.1 4.9h3.4v10.9h-3.4v-10.9zM3.6 1.9c0 0.9-0.7 1.7-1.8 1.7s-1.8-0.8-1.8-1.7c0-1 0.7-1.7 1.8-1.7 1.2 0 1.8 0.7 1.8 1.7z"></path>
</svg>

<svg xmlns="http://www.w3.org/2000/svg" viewBox="0 0 16 16">
    <path fill="#444" d="M5.6 8.2c0-1.4 0-2.5-.1-3.5h2.9l.2 1.5h.1c.4-.7 1.5-1.8 3.4-1.8 2.2 0 3.9 1.5 3.9 4.7v6.4h-3.4v-6c0-1.4-.5-2.4-1.7-2.4-.9 0-1.5.6-1.7 1.3-.2.3-.2.6-.2.9v6.3H5.6V8.2zM.1 4.9h3.4v10.9H.1V4.9zm3.5-3c0 .9-.7 1.7-1.8 1.7S0 2.8 0 1.9C0 .9.7.2 1.8.2 3 .2 3.6.9 3.6 1.9z"/>
</svg>
